X: 3774
T: Birthday, The
R: jig
M: 6/8
K: Eminor
|:E3 EFG|BAB GBG|ABc dcB|ABG FAF|
E3 EFG|BAB GBG|ABc dcB|1 ABG FED:|2 ABG FAd||
|:e3 efg|aga fgd|ede efg|bag fed|
e3 efg|aga fgd|edc BAG|1 ABG FAd:|2 ABG FED||

